X:1
T: Scotch Cove
C:Winston Fitzgerald
R:Jig
Q:180
K:C
M:6/8
L:1/16
|:D2E2F2 G2A2B2|c2B2c2 d4f2|f2e2d2 c2A2F2|c2B2A2 A2E2C2|
D2E2F2 G2A2B2|c2B2c2 d2e2f2|f2e2d2 c2A2F2|1G6 G2F2G2:|2G6 G4a2|
K:F
|:g6 g2^f2g2|d2g2g2 b2a2g2|f6 f2e2f2|c2f2f2 A2c2a2|
g6 g2^f2g2|d2g2b2 a2g2e2|f2e2d2 c2A2F2|1G6 G4a2:|2G6 G6||
